X:1
T: Lady Jane
N:
C:Tune is "Sarabanda" by M Festing
S:
A:
O:
R:
M:3/4
K:Em
I:speed 150
%W: A1
% voice 1 (1 lines, 15 notes)
K:Em
M:3/4
L:1/16
e4 |b2 c'2 b2 g2 e4 |^d4 e8 |f2 g2 a4 g4 |g2 a2 f8 |
%W:
% voice 1 (1 lines, 16 notes)
b4 a2 g2 f2 e2 |^a6 ^g a b2 e2 |d2 ^c2 c6 B2 |B8 e4 |
%W: A2
% voice 1 (1 lines, 19 notes)
b2 c'2 b2 g2 e4 |^d4 e8 |f2 g2 a4 g4 |g2 a2 f8 |b4 a2 g2 f2 e2 |
%W:
% voice 1 (1 lines, 16 notes)
b4 a2 g2 f2 e2 |^a6 ^g a b2 e2 |d2 ^c2 c6 B2 |B8 B4 |
%W: B1
% voice 1 (1 lines, 18 notes)
d4 ^g4 b4 |b2 =f2 f2 e2 e2 d2 |c4 f4 a4 |a2 e2 e2 d2 d2 c2 |
%W:
% voice 1 (1 lines, 15 notes)
B2 d2 g4 e4 |=f2 a2 c'4 e4 |^d2 e2 e6 d e |f8 B4 |
%W: B2
% voice 1 (1 lines, 18 notes)
d4 ^g4 b4 |b2 =f2 f2 e2 e2 d2 |c4 f4 a4 |a2 e2 e2 d2 d2 c2 |
%W:
% voice 1 (1 lines, 14 notes)
B2 d2 g4 e4 |=f2 a2 c'4 e4 |^d2 e2 a2 g2 f4 |e8 ||
